modules/feathericon/icons/cage.svg

<?xml version="1.0" encoding="UTF-8"?>
<svg width="12px" height="10px" viewBox="0 0 12 10" version="1.1" xmlns="http://www.w3.org/2000/svg" xmlns:xlink="http://www.w3.org/1999/xlink">
    <!-- Generator: sketchtool 48.1 (47250) - http://www.bohemiancoding.com/sketch -->
    <title>cage</title>
    <desc>Created with sketchtool.</desc>
    <defs></defs>
    <g id="e-commerce" stroke="none" stroke-width="1" fill="none" fill-rule="evenodd">
        <g id="cage" fill="#000000">
            <path d="M7,4 L7,0 L5,0 L5,4 L1.06929239,4 C0.954393772,4 0.840246553,4.01732788 0.731244157,4.0513167 C0.171147512,4.22596447 -0.131551183,4.79228445 0.0551476986,5.31622777 L1.48048418,9.31622777 C1.62599042,9.72456991 2.03449775,10 2.49462887,10 L9.50566115,10 C9.96579228,10 10.3742996,9.72456991 10.5198058,9.31622777 L11.9451423,5.31622777 C11.9814765,5.2142613 12,5.1074821 12,5 C12,4.44771525 11.5213913,4 10.9309976,4 L7,4 Z M6,7 C6.55228475,7 7,6.55228475 7,6 C7,5.44771525 6.55228475,5 6,5 C5.44771525,5 5,5.44771525 5,6 C5,6.55228475 5.44771525,7 6,7 Z" id="Shape"></path>
        </g>
    </g>
</svg>

<svg width="12" height="10" xmlns="http://www.w3.org/2000/svg"><path d="M7 4V0H5v4H1.07c-.116 0-.23.017-.339.051-.56.175-.863.741-.676 1.265l1.425 4c.146.409.554.684 1.015.684h7.01c.46 0 .87-.275 1.015-.684l1.425-4A.941.941 0 0 0 12 5c0-.552-.479-1-1.069-1H7zM6 7a1 1 0 1 0 0-2 1 1 0 0 0 0 2z" fill="#000" fill-rule="evenodd"/></svg>
